icons/svg/numeric.svg

<svg xmlns="http://www.w3.org/2000/svg" version="1.1" baseProfile="full" width="24" height="24" viewBox="0 0 24.00 24.00" xml:space="preserve"><path fill="#000" fill-opacity="1" stroke-width=".2" stroke-linejoin="round" d="M4 17V9H2V7h4v10H4zm18-2c0 1.11-.9 2-2 2h-4v-2h4v-2h-2v-2h2V9h-4V7h4c1.1 0 2 .89 2 2v1.5c0 .83-.67 1.5-1.5 1.5.83 0 1.5.67 1.5 1.5V15zm-8 0v2H8v-4c0-1.11.9-2 2-2h2V9H8V7h4c1.1 0 2 .89 2 2v2c0 1.11-.9 2-2 2h-2v2h4z"/></svg>

﻿<?xml version="1.0" encoding="utf-8"?>
<!DOCTYPE svg PUBLIC "-//W3C//DTD SVG 1.1//EN" "http://www.w3.org/Graphics/SVG/1.1/DTD/svg11.dtd">
<svg xmlns="http://www.w3.org/2000/svg" xmlns:xlink="http://www.w3.org/1999/xlink" version="1.1" baseProfile="full" width="24" height="24" viewBox="0 0 24.00 24.00" enable-background="new 0 0 24.00 24.00" xml:space="preserve">
	<path fill="#000000" fill-opacity="1" stroke-width="0.2" stroke-linejoin="round" d="M 4,17L 4,9L 2,9L 2,7L 6,7L 6,17L 4,17 Z M 22,15C 22,16.11 21.1,17 20,17L 16,17L 16,15L 20,15L 20,13L 18,13L 18,11L 20,11L 20,9L 16,9L 16,7.00001L 20,7.00001C 21.1,7.00001 22,7.89001 22,9L 22,10.5C 22,11.33 21.3301,12 20.5,12C 21.3301,12 22,12.67 22,13.5L 22,15 Z M 14,15L 14,17L 8,17L 8,13C 8,11.89 8.9,11 10,11L 12,11L 12,9L 8,9L 8,7L 12,7C 13.1,7 14,7.89 14,9L 14,11C 14,12.11 13.1,13 12,13L 10,13L 10,15L 14,15 Z "/>
</svg>
